svg_80x80/vscode.svg

<svg width="80" height="80" xmlns="http://www.w3.org/2000/svg">
<path d="M1.85975 28.3596C1.85975 28.3596 -0.0340226 26.9945 2.2385 25.1717L7.53318 20.4373C7.53318 20.4373 9.0482 18.8434 10.65 20.2321L59.5093 57.2238V74.9622C59.5093 74.9622 59.4857 77.7476 55.9112 77.4398L1.85975 28.3596Z" fill="#2489CA"/>
<path d="M14.4534 39.7932L1.85981 51.2426C1.85981 51.2426 0.565736 52.2053 1.85981 53.9255L7.70684 59.2438C7.70684 59.2438 9.0956 60.7352 11.1472 59.0387L24.4983 48.9149L14.4534 39.7932Z" fill="#1070B3"/>
<path d="M36.5631 39.8879L59.6592 22.2521L59.5093 4.60848C59.5093 4.60848 58.523 0.757809 55.2325 2.76205L24.4982 30.7347L36.5631 39.8879Z" fill="#0877B9"/>
<path d="M55.9111 77.4635C57.2526 78.8365 58.8781 78.3868 58.8781 78.3868L76.8768 69.5176C79.1809 67.9473 78.8574 65.9983 78.8574 65.9983V13.0358C78.8574 10.7081 76.4744 9.9032 76.4744 9.9032L60.8744 2.38335C57.4656 0.276527 55.2325 2.7621 55.2325 2.7621C55.2325 2.7621 58.1048 0.694735 59.5093 4.60853V74.6387C59.5093 75.12 59.4067 75.5934 59.2016 76.0195C58.7913 76.8481 57.8996 77.6214 55.7612 77.2978L55.9111 77.4635Z" fill="#3C99D4"/>
</svg>

<svg xmlns="http://www.w3.org/2000/svg" width="80" height="80"><path fill="#2489CA" d="M1.86 28.36s-1.894-1.366.379-3.188l5.294-4.735s1.515-1.594 3.117-.205l48.86 36.992v17.738s-.024 2.786-3.599 2.478L1.86 28.36Z"/><path fill="#1070B3" d="M14.453 39.793 1.86 51.243s-1.294.962 0 2.682l5.847 5.319s1.389 1.491 3.44-.205l13.351-10.124-10.045-9.122Z"/><path fill="#0877B9" d="M36.563 39.888 59.66 22.252l-.15-17.644s-.986-3.85-4.276-1.846L24.498 30.735l12.065 9.153Z"/><path fill="#3C99D4" d="M55.911 77.463c1.342 1.374 2.967.924 2.967.924l17.999-8.87c2.304-1.57 1.98-3.519 1.98-3.519V13.036c0-2.328-2.383-3.133-2.383-3.133l-15.6-7.52c-3.408-2.106-5.642.38-5.642.38S58.105.694 59.51 4.608v70.03c0 .481-.102.954-.307 1.38-.41.83-1.302 1.602-3.44 1.279l.15.165Z"/></svg>
